images/3233235.svg

<?xml version="1.0" encoding="UTF-8"?>
<svg xmlns="http://www.w3.org/2000/svg" xmlns:xlink="http://www.w3.org/1999/xlink" width="300pt" height="300pt" viewBox="0 0 300 300" version="1.1">
<defs>
<g>
<symbol overflow="visible" id="glyph0-0">
<path style="stroke:none;" d="M 0.453125 1.59375 L 0.453125 -6.34375 L 4.953125 -6.34375 L 4.953125 1.59375 Z M 0.953125 1.09375 L 4.453125 1.09375 L 4.453125 -5.84375 L 0.953125 -5.84375 Z M 0.953125 1.09375 "/>
</symbol>
<symbol overflow="visible" id="glyph0-1">
<path style="stroke:none;" d="M 0.890625 -6.5625 L 2.078125 -6.5625 L 4.984375 -1.078125 L 4.984375 -6.5625 L 5.84375 -6.5625 L 5.84375 0 L 4.65625 0 L 1.75 -5.484375 L 1.75 0 L 0.890625 0 Z M 0.890625 -6.5625 "/>
</symbol>
<symbol overflow="visible" id="glyph0-2">
<path style="stroke:none;" d="M 3.546875 -5.953125 C 2.898438 -5.953125 2.382812 -5.710938 2 -5.234375 C 1.625 -4.753906 1.4375 -4.101562 1.4375 -3.28125 C 1.4375 -2.445312 1.625 -1.789062 2 -1.3125 C 2.382812 -0.832031 2.898438 -0.59375 3.546875 -0.59375 C 4.191406 -0.59375 4.703125 -0.832031 5.078125 -1.3125 C 5.453125 -1.789062 5.640625 -2.445312 5.640625 -3.28125 C 5.640625 -4.101562 5.453125 -4.753906 5.078125 -5.234375 C 4.703125 -5.710938 4.191406 -5.953125 3.546875 -5.953125 Z M 3.546875 -6.6875 C 4.460938 -6.6875 5.195312 -6.375 5.75 -5.75 C 6.300781 -5.132812 6.578125 -4.3125 6.578125 -3.28125 C 6.578125 -2.238281 6.300781 -1.410156 5.75 -0.796875 C 5.195312 -0.179688 4.460938 0.125 3.546875 0.125 C 2.617188 0.125 1.878906 -0.179688 1.328125 -0.796875 C 0.773438 -1.410156 0.5 -2.238281 0.5 -3.28125 C 0.5 -4.3125 0.773438 -5.132812 1.328125 -5.75 C 1.878906 -6.375 2.617188 -6.6875 3.546875 -6.6875 Z M 3.546875 -6.6875 "/>
</symbol>
</g>
</defs>
<g id="surface36693">
<rect x="0" y="0" width="300" height="300" style="fill:rgb(100%,100%,100%);fill-opacity:1;stroke:none;"/>
<path style="fill:none;stroke-width:1.2;stroke-linecap:butt;stroke-linejoin:miter;stroke:rgb(0%,0%,0%);stroke-opacity:1;stroke-miterlimit:10;" d="M 99.238281 120.679688 L 86.789062 121.453125 "/>
<path style="fill:none;stroke-width:1.2;stroke-linecap:butt;stroke-linejoin:miter;stroke:rgb(0%,0%,100%);stroke-opacity:1;stroke-miterlimit:10;" d="M 86.789062 121.453125 L 74.339844 122.226562 "/>
<path style="fill:none;stroke-width:1.2;stroke-linecap:butt;stroke-linejoin:miter;stroke:rgb(0%,0%,100%);stroke-opacity:1;stroke-miterlimit:10;" d="M 74.339844 122.226562 L 66.394531 112.609375 "/>
<path style="fill:none;stroke-width:1.2;stroke-linecap:butt;stroke-linejoin:miter;stroke:rgb(0%,0%,0%);stroke-opacity:1;stroke-miterlimit:10;" d="M 66.394531 112.609375 L 58.449219 102.992188 "/>
<path style="fill:none;stroke-width:1.2;stroke-linecap:butt;stroke-linejoin:miter;stroke:rgb(0%,0%,0%);stroke-opacity:1;stroke-miterlimit:10;" d="M 60.957031 143.28125 L 67.648438 132.753906 "/>
<path style="fill:none;stroke-width:1.2;stroke-linecap:butt;stroke-linejoin:miter;stroke:rgb(0%,0%,100%);stroke-opacity:1;stroke-miterlimit:10;" d="M 67.648438 132.753906 L 74.339844 122.226562 "/>
<path style=" stroke:none;fill-rule:nonzero;fill:rgb(100%,100%,100%);fill-opacity:1;" d="M 71.339844 116.726562 L 78.339844 116.726562 L 78.339844 127.726562 L 71.339844 127.726562 Z M 71.339844 116.726562 "/>
<g style="fill:rgb(0%,0%,100%);fill-opacity:1;">
  <use xlink:href="#glyph0-1" x="71.339844" y="125.389648"/>
</g>
<path style="fill:none;stroke-width:1.2;stroke-linecap:butt;stroke-linejoin:miter;stroke:rgb(0%,0%,0%);stroke-opacity:1;stroke-miterlimit:10;" d="M 58.449219 102.992188 L 35.25 112.160156 "/>
<path style="fill:none;stroke-width:1.2;stroke-linecap:butt;stroke-linejoin:miter;stroke:rgb(0%,0%,0%);stroke-opacity:1;stroke-miterlimit:10;" d="M 58.289062 109.371094 L 39.726562 116.703125 "/>
<path style="fill:none;stroke-width:1.2;stroke-linecap:butt;stroke-linejoin:miter;stroke:rgb(0%,0%,0%);stroke-opacity:1;stroke-miterlimit:10;" d="M 35.25 112.160156 L 36.796875 137.058594 "/>
<path style="fill:none;stroke-width:1.2;stroke-linecap:butt;stroke-linejoin:miter;stroke:rgb(0%,0%,0%);stroke-opacity:1;stroke-miterlimit:10;" d="M 36.796875 137.058594 L 60.957031 143.28125 "/>
<path style="fill:none;stroke-width:1.2;stroke-linecap:butt;stroke-linejoin:miter;stroke:rgb(0%,0%,0%);stroke-opacity:1;stroke-miterlimit:10;" d="M 40.679688 131.996094 L 60.003906 136.972656 "/>
<path style="fill:none;stroke-width:1.2;stroke-linecap:butt;stroke-linejoin:miter;stroke:rgb(0%,0%,0%);stroke-opacity:1;stroke-miterlimit:10;" d="M 60.957031 143.28125 L 70.125 166.480469 "/>
<path style="fill:none;stroke-width:1.2;stroke-linecap:butt;stroke-linejoin:miter;stroke:rgb(0%,0%,0%);stroke-opacity:1;stroke-miterlimit:10;" d="M 67.824219 164.65625 L 60.070312 174.425781 "/>
<path style="fill:none;stroke-width:1.2;stroke-linecap:butt;stroke-linejoin:miter;stroke:rgb(100%,0%,0%);stroke-opacity:1;stroke-miterlimit:10;" d="M 60.070312 174.425781 L 52.316406 184.195312 "/>
<path style="fill:none;stroke-width:1.2;stroke-linecap:butt;stroke-linejoin:miter;stroke:rgb(0%,0%,0%);stroke-opacity:1;stroke-miterlimit:10;" d="M 72.421875 168.304688 L 64.667969 178.074219 "/>
<path style="fill:none;stroke-width:1.2;stroke-linecap:butt;stroke-linejoin:miter;stroke:rgb(100%,0%,0%);stroke-opacity:1;stroke-miterlimit:10;" d="M 64.667969 178.074219 L 56.914062 187.84375 "/>
<path style="fill:none;stroke-width:1.2;stroke-linecap:butt;stroke-linejoin:miter;stroke:rgb(0%,0%,0%);stroke-opacity:1;stroke-miterlimit:10;" d="M 70.125 166.480469 L 82.460938 168.3125 "/>
<path style="fill:none;stroke-width:1.2;stroke-linecap:butt;stroke-linejoin:miter;stroke:rgb(0%,0%,100%);stroke-opacity:1;stroke-miterlimit:10;" d="M 82.460938 168.3125 L 94.800781 170.144531 "/>
<path style=" stroke:none;fill-rule:nonzero;fill:rgb(100%,100%,100%);fill-opacity:1;" d="M 46.613281 180.519531 L 54.613281 180.519531 L 54.613281 191.519531 L 46.613281 191.519531 Z M 46.613281 180.519531 "/>
<g style="fill:rgb(100%,0%,0%);fill-opacity:1;">
  <use xlink:href="#glyph0-2" x="46.613281" y="189.182617"/>
</g>
<path style="fill:none;stroke-width:1.2;stroke-linecap:butt;stroke-linejoin:miter;stroke:rgb(0%,0%,100%);stroke-opacity:1;stroke-miterlimit:10;" d="M 94.800781 170.144531 L 99.382812 181.742188 "/>
<path style="fill:none;stroke-width:1.2;stroke-linecap:butt;stroke-linejoin:miter;stroke:rgb(0%,0%,0%);stroke-opacity:1;stroke-miterlimit:10;" d="M 99.382812 181.742188 L 103.964844 193.34375 "/>
<path style="fill:none;stroke-width:1.2;stroke-linecap:butt;stroke-linejoin:miter;stroke:rgb(0%,0%,0%);stroke-opacity:1;stroke-miterlimit:10;" d="M 110.308594 150.605469 L 102.554688 160.375 "/>
<path style="fill:none;stroke-width:1.2;stroke-linecap:butt;stroke-linejoin:miter;stroke:rgb(0%,0%,100%);stroke-opacity:1;stroke-miterlimit:10;" d="M 102.554688 160.375 L 94.800781 170.144531 "/>
<path style=" stroke:none;fill-rule:nonzero;fill:rgb(100%,100%,100%);fill-opacity:1;" d="M 91.800781 164.644531 L 98.800781 164.644531 L 98.800781 175.644531 L 91.800781 175.644531 Z M 91.800781 164.644531 "/>
<g style="fill:rgb(0%,0%,100%);fill-opacity:1;">
  <use xlink:href="#glyph0-1" x="91.800781" y="173.307617"/>
</g>
<path style="fill:none;stroke-width:1.2;stroke-linecap:butt;stroke-linejoin:miter;stroke:rgb(0%,0%,0%);stroke-opacity:1;stroke-miterlimit:10;" d="M 103.964844 193.34375 L 128.644531 197.007812 "/>
<path style="fill:none;stroke-width:1.2;stroke-linecap:butt;stroke-linejoin:miter;stroke:rgb(0%,0%,0%);stroke-opacity:1;stroke-miterlimit:10;" d="M 128.644531 197.007812 L 144.152344 177.46875 "/>
<path style="fill:none;stroke-width:1;stroke-linecap:butt;stroke-linejoin:miter;stroke:rgb(0%,0%,0%);stroke-opacity:1;stroke-miterlimit:10;" d="M 134.984375 154.265625 L 134.984375 154.265625 M 135.585938 157.203125 L 136.554688 156.820312 M 136.1875 160.144531 L 138.125 159.378906 M 136.789062 163.082031 L 139.695312 161.933594 M 137.386719 166.023438 L 141.265625 164.488281 M 137.988281 168.960938 L 142.835938 167.046875 M 138.589844 171.902344 L 144.40625 169.601562 M 139.191406 174.839844 L 145.980469 172.160156 M 139.789062 177.78125 L 147.550781 174.714844 M 140.058594 179.085938 L 148.246094 175.847656 "/>
<path style="fill:none;stroke-width:1.2;stroke-linecap:butt;stroke-linejoin:miter;stroke:rgb(0%,0%,0%);stroke-opacity:1;stroke-miterlimit:10;" d="M 134.984375 154.265625 L 110.308594 150.605469 "/>
<path style="fill:none;stroke-width:1.2;stroke-linecap:butt;stroke-linejoin:miter;stroke:rgb(0%,0%,0%);stroke-opacity:1;stroke-miterlimit:10;" d="M 134.984375 154.265625 L 128.292969 130.234375 "/>
<path style="fill:none;stroke-width:1.2;stroke-linecap:butt;stroke-linejoin:miter;stroke:rgb(0%,0%,0%);stroke-opacity:1;stroke-miterlimit:10;" d="M 159.910156 155.328125 L 134.984375 154.265625 "/>
<path style="fill:none;stroke-width:1.2;stroke-linecap:butt;stroke-linejoin:miter;stroke:rgb(0%,0%,0%);stroke-opacity:1;stroke-miterlimit:10;" d="M 128.292969 130.234375 L 149.082031 116.441406 "/>
<path style="fill:none;stroke-width:1.2;stroke-linecap:butt;stroke-linejoin:miter;stroke:rgb(0%,0%,0%);stroke-opacity:1;stroke-miterlimit:10;" d="M 149.082031 116.441406 L 158.851562 124.199219 "/>
<path style="fill:none;stroke-width:1.2;stroke-linecap:butt;stroke-linejoin:miter;stroke:rgb(0%,0%,100%);stroke-opacity:1;stroke-miterlimit:10;" d="M 158.851562 124.199219 L 168.621094 131.953125 "/>
<path style="fill:none;stroke-width:1.2;stroke-linecap:butt;stroke-linejoin:miter;stroke:rgb(0%,0%,100%);stroke-opacity:1;stroke-miterlimit:10;" d="M 168.621094 131.953125 L 164.265625 143.640625 "/>
<path style="fill:none;stroke-width:1.2;stroke-linecap:butt;stroke-linejoin:miter;stroke:rgb(0%,0%,0%);stroke-opacity:1;stroke-miterlimit:10;" d="M 164.265625 143.640625 L 159.910156 155.328125 "/>
<path style="fill:none;stroke-width:1.2;stroke-linecap:butt;stroke-linejoin:miter;stroke:rgb(0%,0%,100%);stroke-opacity:1;stroke-miterlimit:10;" d="M 168.621094 131.953125 L 180.636719 128.605469 "/>
<path style="fill:none;stroke-width:1.2;stroke-linecap:butt;stroke-linejoin:miter;stroke:rgb(0%,0%,0%);stroke-opacity:1;stroke-miterlimit:10;" d="M 180.636719 128.605469 L 192.652344 125.261719 "/>
<path style=" stroke:none;fill-rule:nonzero;fill:rgb(100%,100%,100%);fill-opacity:1;" d="M 165.621094 126.453125 L 172.621094 126.453125 L 172.621094 137.453125 L 165.621094 137.453125 Z M 165.621094 126.453125 "/>
<g style="fill:rgb(0%,0%,100%);fill-opacity:1;">
  <use xlink:href="#glyph0-1" x="165.621094" y="135.116211"/>
</g>
<path style="fill:none;stroke-width:1.2;stroke-linecap:butt;stroke-linejoin:miter;stroke:rgb(0%,0%,0%);stroke-opacity:1;stroke-miterlimit:10;" d="M 192.652344 125.261719 L 210.464844 142.726562 "/>
<path style="fill:none;stroke-width:1.2;stroke-linecap:butt;stroke-linejoin:miter;stroke:rgb(0%,0%,0%);stroke-opacity:1;stroke-miterlimit:10;" d="M 210.464844 142.726562 L 204.242188 166.886719 "/>
<path style="fill:none;stroke-width:1.2;stroke-linecap:butt;stroke-linejoin:miter;stroke:rgb(0%,0%,0%);stroke-opacity:1;stroke-miterlimit:10;" d="M 215.527344 146.609375 L 210.550781 165.933594 "/>
<path style="fill:none;stroke-width:1.2;stroke-linecap:butt;stroke-linejoin:miter;stroke:rgb(0%,0%,0%);stroke-opacity:1;stroke-miterlimit:10;" d="M 234.496094 136.035156 L 210.464844 142.726562 "/>
<path style="fill:none;stroke-width:1.2;stroke-linecap:butt;stroke-linejoin:miter;stroke:rgb(0%,0%,0%);stroke-opacity:1;stroke-miterlimit:10;" d="M 204.242188 166.886719 L 222.054688 184.351562 "/>
<path style="fill:none;stroke-width:1.2;stroke-linecap:butt;stroke-linejoin:miter;stroke:rgb(0%,0%,0%);stroke-opacity:1;stroke-miterlimit:10;" d="M 222.054688 184.351562 L 246.085938 177.660156 "/>
<path style="fill:none;stroke-width:1.2;stroke-linecap:butt;stroke-linejoin:miter;stroke:rgb(0%,0%,0%);stroke-opacity:1;stroke-miterlimit:10;" d="M 222.882812 178.027344 L 242.109375 172.675781 "/>
<path style="fill:none;stroke-width:1.2;stroke-linecap:butt;stroke-linejoin:miter;stroke:rgb(0%,0%,0%);stroke-opacity:1;stroke-miterlimit:10;" d="M 246.085938 177.660156 L 252.308594 153.503906 "/>
<path style="fill:none;stroke-width:1.2;stroke-linecap:butt;stroke-linejoin:miter;stroke:rgb(0%,0%,0%);stroke-opacity:1;stroke-miterlimit:10;" d="M 252.308594 153.503906 L 234.496094 136.035156 "/>
<path style="fill:none;stroke-width:1.2;stroke-linecap:butt;stroke-linejoin:miter;stroke:rgb(0%,0%,0%);stroke-opacity:1;stroke-miterlimit:10;" d="M 246.417969 155.949219 L 232.167969 141.972656 "/>
<path style="fill:none;stroke-width:1.2;stroke-linecap:butt;stroke-linejoin:miter;stroke:rgb(0%,0%,0%);stroke-opacity:1;stroke-miterlimit:10;" d="M 234.496094 136.035156 L 237.605469 123.957031 "/>
<path style="fill:none;stroke-width:1.2;stroke-linecap:butt;stroke-linejoin:miter;stroke:rgb(100%,0%,0%);stroke-opacity:1;stroke-miterlimit:10;" d="M 237.605469 123.957031 L 240.71875 111.878906 "/>
<path style="fill:none;stroke-width:1.2;stroke-linecap:butt;stroke-linejoin:miter;stroke:rgb(100%,0%,0%);stroke-opacity:1;stroke-miterlimit:10;" d="M 240.71875 111.878906 L 252.734375 108.53125 "/>
<path style="fill:none;stroke-width:1.2;stroke-linecap:butt;stroke-linejoin:miter;stroke:rgb(0%,0%,0%);stroke-opacity:1;stroke-miterlimit:10;" d="M 252.734375 108.53125 L 264.75 105.1875 "/>
<path style=" stroke:none;fill-rule:nonzero;fill:rgb(100%,100%,100%);fill-opacity:1;" d="M 236.71875 106.378906 L 244.71875 106.378906 L 244.71875 117.378906 L 236.71875 117.378906 Z M 236.71875 106.378906 "/>
<g style="fill:rgb(100%,0%,0%);fill-opacity:1;">
  <use xlink:href="#glyph0-2" x="236.71875" y="115.041992"/>
</g>
</g>
</svg>

<svg xmlns="http://www.w3.org/2000/svg" xmlns:xlink="http://www.w3.org/1999/xlink" width="300pt" height="300pt" viewBox="0 0 300 300"><defs><symbol overflow="visible"><path d="M.453 1.594v-7.938h4.5v7.938zm.5-.5h3.5v-6.938h-3.5zm0 0"/></symbol><symbol overflow="visible" id="a"><path d="M.89-6.563H2.08l2.906 5.485v-5.484h.86V0H4.656L1.75-5.484V0H.89zm0 0"/></symbol><symbol overflow="visible" id="b"><path d="M3.547-5.953c-.65 0-1.164.242-1.547.72-.375.48-.563 1.13-.563 1.952 0 .835.188 1.49.563 1.967.383.48.898.72 1.547.72.644 0 1.156-.24 1.53-.72.376-.476.564-1.132.564-1.968 0-.822-.187-1.474-.562-1.954-.375-.477-.887-.72-1.53-.72zm0-.734c.914 0 1.648.312 2.203.937.55.617.828 1.438.828 2.47 0 1.042-.277 1.87-.828 2.483-.555.617-1.29.922-2.203.922-.93 0-1.668-.305-2.22-.922C.774-1.41.5-2.237.5-3.28c0-1.033.273-1.853.828-2.47.55-.625 1.29-.938 2.22-.938zm0 0"/></symbol></defs><g><path fill="#fff" d="M0 0h300v300H0z"/><path d="M99.238 120.68l-12.45.773" stroke-width="1.2" stroke="#000" stroke-miterlimit="10" fill="none"/><path d="M86.79 121.453l-12.45.774M74.34 122.227l-7.945-9.618" stroke-width="1.2" stroke="#00f" stroke-miterlimit="10" fill="none"/><path d="M66.395 112.61l-7.946-9.618M60.957 143.28l6.69-10.526" stroke-width="1.2" stroke="#000" stroke-miterlimit="10" fill="none"/><path d="M67.648 132.754l6.692-10.527" stroke-width="1.2" stroke="#00f" stroke-miterlimit="10" fill="none"/><path d="M71.34 116.727h7v11h-7zm0 0" fill="#fff"/><use xlink:href="#a" x="71.34" y="125.39" fill="#00f"/><path d="M58.45 102.992l-23.2 9.168M58.29 109.37l-18.563 7.333M35.25 112.16l1.547 24.9M36.797 137.06l24.16 6.22M40.68 131.996l19.324 4.977M60.957 143.28l9.168 23.2M67.824 164.656l-7.754 9.77" stroke-width="1.2" stroke="#000" stroke-miterlimit="10" fill="none"/><path d="M60.07 174.426l-7.754 9.77" stroke-width="1.2" stroke="#f00" stroke-miterlimit="10" fill="none"/><path d="M72.422 168.305l-7.754 9.77" stroke-width="1.2" stroke="#000" stroke-miterlimit="10" fill="none"/><path d="M64.668 178.074l-7.754 9.77" stroke-width="1.2" stroke="#f00" stroke-miterlimit="10" fill="none"/><path d="M70.125 166.48l12.336 1.833" stroke-width="1.2" stroke="#000" stroke-miterlimit="10" fill="none"/><path d="M82.46 168.313l12.34 1.832" stroke-width="1.2" stroke="#00f" stroke-miterlimit="10" fill="none"/><path d="M46.613 180.52h8v11h-8zm0 0" fill="#fff"/><use xlink:href="#b" x="46.613" y="189.183" fill="#f00"/><path d="M94.8 170.145l4.583 11.597" stroke-width="1.2" stroke="#00f" stroke-miterlimit="10" fill="none"/><path d="M99.383 181.742l4.582 11.602M110.31 150.605l-7.755 9.77" stroke-width="1.2" stroke="#000" stroke-miterlimit="10" fill="none"/><path d="M102.555 160.375l-7.754 9.77" stroke-width="1.2" stroke="#00f" stroke-miterlimit="10" fill="none"/><path d="M91.8 164.645h7v11h-7zm0 0" fill="#fff"/><use xlink:href="#a" x="91.801" y="173.308" fill="#00f"/><path d="M103.965 193.344l24.68 3.664M128.645 197.008l15.507-19.54" stroke-width="1.2" stroke="#000" stroke-miterlimit="10" fill="none"/><path d="M134.984 154.266m.602 2.937l.97-.383m-.37 3.325l1.94-.766m-1.337 3.702l2.905-1.148m-2.308 4.09l3.88-1.536m-3.28 4.473l4.85-1.913m-4.247 4.855l5.816-2.3m-5.215 5.238l6.79-2.68m-6.19 5.62l7.76-3.065m-7.49 4.37l8.186-3.237" stroke="#000" stroke-miterlimit="10" fill="none"/><path d="M134.984 154.266l-24.675-3.66M134.984 154.266l-6.69-24.032M159.91 155.328l-24.926-1.062M128.293 130.234l20.79-13.793M149.082 116.44l9.77 7.76" stroke-width="1.2" stroke="#000" stroke-miterlimit="10" fill="none"/><path d="M158.852 124.2l9.77 7.753M168.62 131.953l-4.354 11.688" stroke-width="1.2" stroke="#00f" stroke-miterlimit="10" fill="none"/><path d="M164.266 143.64l-4.356 11.688" stroke-width="1.2" stroke="#000" stroke-miterlimit="10" fill="none"/><path d="M168.62 131.953l12.017-3.348" stroke-width="1.2" stroke="#00f" stroke-miterlimit="10" fill="none"/><path d="M180.637 128.605l12.015-3.343" stroke-width="1.2" stroke="#000" stroke-miterlimit="10" fill="none"/><path d="M165.62 126.453h7v11h-7zm0 0" fill="#fff"/><use xlink:href="#a" x="165.621" y="135.116" fill="#00f"/><path d="M192.652 125.262l17.813 17.465M210.465 142.727l-6.223 24.16M215.527 146.61l-4.976 19.324M234.496 136.035l-24.03 6.692M204.242 166.887l17.813 17.465M222.055 184.352l24.03-6.692M222.883 178.027l19.226-5.35M246.086 177.66l6.223-24.156M252.31 153.504l-17.814-17.47M246.418 155.95l-14.25-13.977M234.496 136.035l3.11-12.078" stroke-width="1.2" stroke="#000" stroke-miterlimit="10" fill="none"/><path d="M237.605 123.957l3.114-12.078M240.72 111.88l12.014-3.35" stroke-width="1.2" stroke="#f00" stroke-miterlimit="10" fill="none"/><path d="M252.734 108.53l12.016-3.343" stroke-width="1.2" stroke="#000" stroke-miterlimit="10" fill="none"/><path d="M236.72 106.38h8v11h-8zm0 0" fill="#fff"/><use xlink:href="#b" x="236.719" y="115.042" fill="#f00"/></g></svg>
